X:12
T:Lucy's Delight. VWMLa.012
%%VWML:Anon2-3049-p9-0
F:http://www.vwml.org/record/Anon2/3049/p9
S:Anon. MS, late 18thC, Vaughan Williams Mem. Library
O:England;Yorkshire
Z:vmp/efdss.Simon Wilson. Reviewed PJH 2008.
M:2/4
L:1/8
Q:1/4=160
K:G
!turn!BAGB|edcB|edcB|gdcB|\
!turn!BAGB|edcB|caBg|A2D2:|
|:!turn!BAGB|edeg|!turn!BAGB|cA=fA|\
!turn!BAGB|edeg|dBcA|G2G,2:|
BG (A/B/c/A/)|BG (A/B/c/A/)|\
BGcA|(DF) (A/B/c/A/)|\
BG (A/B/c/A/)|BG (A/B/c/A/)|dBcA|G2G,2:|
